pistes-carto/pics/jump.svg

<?xml version="1.0" encoding="UTF-8"?>
<!-- Created with Inkscape (http://www.inkscape.org/) -->
<svg id="svg2" width="18" height="18" version="1.1" xmlns="http://www.w3.org/2000/svg" xmlns:cc="http://creativecommons.org/ns#" xmlns:dc="http://purl.org/dc/elements/1.1/" xmlns:rdf="http://www.w3.org/1999/02/22-rdf-syntax-ns#">
 <metadata id="metadata7">
  <rdf:RDF>
   <cc:Work rdf:about="">
    <dc:format>image/svg+xml</dc:format>
    <dc:type rdf:resource="http://purl.org/dc/dcmitype/StillImage"/>
    <dc:title/>
    <cc:license rdf:resource="http://creativecommons.org/publicdomain/zero/1.0/"/>
   </cc:Work>
   <cc:License rdf:about="http://creativecommons.org/publicdomain/zero/1.0/">
    <cc:permits rdf:resource="http://creativecommons.org/ns#Reproduction"/>
    <cc:permits rdf:resource="http://creativecommons.org/ns#Distribution"/>
    <cc:permits rdf:resource="http://creativecommons.org/ns#DerivativeWorks"/>
   </cc:License>
  </rdf:RDF>
 </metadata>
 <g id="layer1" transform="translate(-365.12 -518.3)">
  <g id="g3832" transform="translate(360.43 520.1)">
   <rect id="rect3020" x="5.0233" y="-1.5066" width="17.36" height="17.36" rx="3" ry="3" fill="#003c8c" opacity=".8"/>
   <flowRoot id="flowRoot2875" transform="translate(53.437 -1022.6)" fill="#000000" font-family="Bitstream Vera Sans" font-size="40px" xml:space="preserve"><flowRegion id="flowRegion2877"><rect id="rect2879" x="3100" y="170.89" width="458.33" height="41.667"/></flowRegion><flowPara id="flowPara2881"/></flowRoot>
   <flowRoot id="flowRoot2834" transform="translate(53.437 -1022.6)" fill="#000000" font-family="Bitstream Vera Sans" font-size="40px" xml:space="preserve"><flowRegion id="flowRegion2836"><rect id="rect2838" x="1227.3" y="-1188.2" width="5749.8" height="1268.3"/></flowRegion><flowPara id="flowPara2840" font-family="DejaVu Sans" font-size="500px"/></flowRoot>
  </g>
  <g id="g5354" transform="matrix(1.8215 0 0 -1.8215 377.63 522.2)">
   <path id="path5356" d="m0 0c0.367 0 0.662 0.295 0.662 0.66s-0.295 0.662-0.662 0.662c-0.365 0-0.66-0.297-0.66-0.662s0.295-0.66 0.66-0.66" fill="#fff"/>
  </g>
  <g id="g5358" transform="matrix(1.8215 0 0 -1.8215 372.52 527.08)">
   <path id="path5360" d="m0 0 2.379 1.537c0.31 0.197 0.404 0.608 0.207 0.918-0.195 0.311-0.607 0.404-0.918 0.207l-1.754-1.133c-0.1-0.064-0.178-0.148-0.228-0.246l-1.826-3.597c-0.107-0.213-0.023-0.471 0.188-0.579 0.211-0.107 0.471-0.023 0.578 0.188l1.374 2.705z" fill="#fff"/>
  </g>
  <g id="g5362" transform="matrix(1.8215 0 0 -1.8215 380.96 526.62)">
   <path id="path5364" d="m0 0c0.314 0.197 0.412 0.611 0.215 0.926l-0.231-0.141c0.12-0.189 0.061-0.437-0.129-0.555l-7.303-4.623 0.144-0.228 7.304 4.621z" fill="#fff"/>
  </g>
 </g>
</svg>

<?xml version="1.0" encoding="UTF-8" standalone="no"?>
<!-- Created with Inkscape (http://www.inkscape.org/) -->

<svg
   xmlns:dc="http://purl.org/dc/elements/1.1/"
   xmlns:cc="http://creativecommons.org/ns#"
   xmlns:rdf="http://www.w3.org/1999/02/22-rdf-syntax-ns#"
   xmlns:svg="http://www.w3.org/2000/svg"
   xmlns="http://www.w3.org/2000/svg"
   xmlns:sodipodi="http://sodipodi.sourceforge.net/DTD/sodipodi-0.dtd"
   xmlns:inkscape="http://www.inkscape.org/namespaces/inkscape"
   width="18"
   height="18"
   id="svg2"
   version="1.1"
   inkscape:version="0.48.3.1 r9886"
   sodipodi:docname="jump.svg"
   inkscape:export-filename="/home/yves/Images/jump.png"
   inkscape:export-xdpi="90"
   inkscape:export-ydpi="90">
  <defs
     id="defs4"><inkscape:perspective
   sodipodi:type="inkscape:persp3d"
   inkscape:vp_x="0 : 0.5 : 1"
   inkscape:vp_y="0 : 1000 : 0"
   inkscape:vp_z="1 : 0.5 : 1"
   inkscape:persp3d-origin="0.5 : 0.33333333 : 1"
   id="perspective10-7" />
<inkscape:perspective
   sodipodi:type="inkscape:persp3d"
   inkscape:vp_x="0 : 0.5 : 1"
   inkscape:vp_y="0 : 1000 : 0"
   inkscape:vp_z="1 : 0.5 : 1"
   inkscape:persp3d-origin="0.5 : 0.33333333 : 1"
   id="perspective2862" />
<inkscape:perspective
   sodipodi:type="inkscape:persp3d"
   inkscape:vp_x="0 : 0.5 : 1"
   inkscape:vp_y="0 : 1000 : 0"
   inkscape:vp_z="1 : 0.5 : 1"
   inkscape:persp3d-origin="0.5 : 0.33333333 : 1"
   id="perspective2861" />
<inkscape:perspective
   id="perspective10"
   inkscape:persp3d-origin="0.5 : 0.33333333 : 1"
   inkscape:vp_z="1 : 0.5 : 1"
   inkscape:vp_y="0 : 1000 : 0"
   inkscape:vp_x="0 : 0.5 : 1"
   sodipodi:type="inkscape:persp3d" />
<inkscape:perspective
   sodipodi:type="inkscape:persp3d"
   inkscape:vp_x="0 : 0.5 : 1"
   inkscape:vp_y="0 : 1000 : 0"
   inkscape:vp_z="1 : 0.5 : 1"
   inkscape:persp3d-origin="0.5 : 0.33333333 : 1"
   id="perspective2828" />
<inkscape:perspective
   id="perspective10-6"
   inkscape:persp3d-origin="0.5 : 0.33333333 : 1"
   inkscape:vp_z="1 : 0.5 : 1"
   inkscape:vp_y="0 : 1000 : 0"
   inkscape:vp_x="0 : 0.5 : 1"
   sodipodi:type="inkscape:persp3d" />
<inkscape:perspective
   sodipodi:type="inkscape:persp3d"
   inkscape:vp_x="0 : 0.5 : 1"
   inkscape:vp_y="0 : 1000 : 0"
   inkscape:vp_z="1 : 0.5 : 1"
   inkscape:persp3d-origin="0.5 : 0.33333333 : 1"
   id="perspective3694" />
<inkscape:perspective
   sodipodi:type="inkscape:persp3d"
   inkscape:vp_x="0 : 0.5 : 1"
   inkscape:vp_y="0 : 1000 : 0"
   inkscape:vp_z="1 : 0.5 : 1"
   inkscape:persp3d-origin="0.5 : 0.33333333 : 1"
   id="perspective3663-5" />
<inkscape:perspective
   sodipodi:type="inkscape:persp3d"
   inkscape:vp_x="0 : 0.5 : 1"
   inkscape:vp_y="0 : 1000 : 0"
   inkscape:vp_z="1 : 0.5 : 1"
   inkscape:persp3d-origin="0.5 : 0.33333333 : 1"
   id="perspective3663" />
<inkscape:perspective
   sodipodi:type="inkscape:persp3d"
   inkscape:vp_x="0 : 0.5 : 1"
   inkscape:vp_y="0 : 1000 : 0"
   inkscape:vp_z="1 : 0.5 : 1"
   inkscape:persp3d-origin="0.5 : 0.33333333 : 1"
   id="perspective3632-4" />
<inkscape:perspective
   sodipodi:type="inkscape:persp3d"
   inkscape:vp_x="0 : 0.5 : 1"
   inkscape:vp_y="0 : 1000 : 0"
   inkscape:vp_z="1 : 0.5 : 1"
   inkscape:persp3d-origin="0.5 : 0.33333333 : 1"
   id="perspective3632" />
<inkscape:perspective
   sodipodi:type="inkscape:persp3d"
   inkscape:vp_x="0 : 0.5 : 1"
   inkscape:vp_y="0 : 1000 : 0"
   inkscape:vp_z="1 : 0.5 : 1"
   inkscape:persp3d-origin="0.5 : 0.33333333 : 1"
   id="perspective3610" />
<inkscape:perspective
   sodipodi:type="inkscape:persp3d"
   inkscape:vp_x="0 : 0.5 : 1"
   inkscape:vp_y="0 : 1000 : 0"
   inkscape:vp_z="1 : 0.5 : 1"
   inkscape:persp3d-origin="0.5 : 0.33333333 : 1"
   id="perspective3693" />
<inkscape:perspective
   sodipodi:type="inkscape:persp3d"
   inkscape:vp_x="0 : 27.5 : 1"
   inkscape:vp_y="0 : 1000 : 0"
   inkscape:vp_z="55 : 27.5 : 1"
   inkscape:persp3d-origin="27.5 : 18.333333 : 1"
   id="perspective3626" />

	
	
	
	
	
	
<inkscape:perspective
   id="perspective23"
   inkscape:persp3d-origin="61.773499 : 41.179667 : 1"
   inkscape:vp_z="123.547 : 61.769501 : 1"
   inkscape:vp_y="0 : 1000 : 0"
   inkscape:vp_x="0 : 61.769501 : 1"
   sodipodi:type="inkscape:persp3d" />
<inkscape:perspective
   id="perspective8310"
   inkscape:persp3d-origin="372.04724 : 350.78739 : 1"
   inkscape:vp_z="744.09448 : 526.18109 : 1"
   inkscape:vp_y="0 : 1000 : 0"
   inkscape:vp_x="0 : 526.18109 : 1"
   sodipodi:type="inkscape:persp3d" />
</defs>
  <sodipodi:namedview
     id="base"
     pagecolor="#ffffff"
     bordercolor="#666666"
     borderopacity="1.0"
     inkscape:pageopacity="0.0"
     inkscape:pageshadow="2"
     inkscape:zoom="5.6175161"
     inkscape:cx="7.9723216"
     inkscape:cy="-8.170675"
     inkscape:document-units="px"
     inkscape:current-layer="layer1"
     showgrid="false"
     inkscape:window-width="845"
     inkscape:window-height="623"
     inkscape:window-x="723"
     inkscape:window-y="160"
     inkscape:window-maximized="0"
     fit-margin-top="0"
     fit-margin-left="0"
     fit-margin-right="0"
     fit-margin-bottom="0" />
  <metadata
     id="metadata7">
    <rdf:RDF>
      <cc:Work
         rdf:about="">
        <dc:format>image/svg+xml</dc:format>
        <dc:type
           rdf:resource="http://purl.org/dc/dcmitype/StillImage" />
        <dc:title></dc:title>
        <cc:license
           rdf:resource="http://creativecommons.org/publicdomain/zero/1.0/" />
      </cc:Work>
      <cc:License
         rdf:about="http://creativecommons.org/publicdomain/zero/1.0/">
        <cc:permits
           rdf:resource="http://creativecommons.org/ns#Reproduction" />
        <cc:permits
           rdf:resource="http://creativecommons.org/ns#Distribution" />
        <cc:permits
           rdf:resource="http://creativecommons.org/ns#DerivativeWorks" />
      </cc:License>
    </rdf:RDF>
  </metadata>
  <g
     inkscape:label="Layer 1"
     inkscape:groupmode="layer"
     id="layer1"
     transform="translate(-365.11732,-518.2959)">
    <g
       id="g3832"
       transform="translate(360.43232,520.10382)">
      <rect
         inkscape:export-ydpi="2.3142858"
         inkscape:export-xdpi="2.3142858"
         inkscape:export-filename="/home/yves/Images/alpine.png"
         ry="3"
         rx="3"
         y="-1.5065663"
         x="5.023313"
         height="17.36034"
         width="17.36034"
         id="rect3020"
         style="opacity:0.8;fill:#003c8c;fill-opacity:1;stroke:none" />
      <flowRoot
         transform="translate(53.437489,-1022.5961)"
         style="font-size:40px;font-style:normal;font-weight:normal;fill:#000000;fill-opacity:1;stroke:none;font-family:Bitstream Vera Sans"
         id="flowRoot2875"
         xml:space="preserve"><flowRegion
           id="flowRegion2877"><rect
             y="170.88774"
             x="3100"
             height="41.666668"
             width="458.33334"
             id="rect2879" /></flowRegion><flowPara
           id="flowPara2881" /></flowRoot>      <flowRoot
         transform="translate(53.437489,-1022.5961)"
         style="font-size:40px;font-style:normal;font-weight:normal;fill:#000000;fill-opacity:1;stroke:none;font-family:Bitstream Vera Sans"
         id="flowRoot2834"
         xml:space="preserve"><flowRegion
           id="flowRegion2836"><rect
             y="-1188.2031"
             x="1227.2727"
             height="1268.3285"
             width="5749.7559"
             id="rect2838" /></flowRegion><flowPara
           style="font-size:500px;font-style:normal;font-variant:normal;font-weight:normal;font-stretch:normal;font-family:DejaVu Sans;-inkscape-font-specification:DejaVu Sans"
           id="flowPara2840" /></flowRoot>    </g>
    <g
       id="g5354"
       transform="matrix(1.8214937,0,0,-1.8214937,377.63339,522.19576)">
      <path
         inkscape:connector-curvature="0"
         d="M 0,0 C 0.367,0 0.662,0.295 0.662,0.66 0.662,1.025 0.367,1.322 0,1.322 -0.365,1.322 -0.66,1.025 -0.66,0.66 -0.66,0.295 -0.365,0 0,0"
         style="fill:#ffffff;fill-opacity:1;fill-rule:nonzero;stroke:none"
         id="path5356" />
    </g>
    <g
       id="g5358"
       transform="matrix(1.8214937,0,0,-1.8214937,372.52117,527.08048)">
      <path
         inkscape:connector-curvature="0"
         d="M 0,0 2.379,1.537 C 2.689,1.734 2.783,2.145 2.586,2.455 2.391,2.766 1.979,2.859 1.668,2.662 L -0.086,1.529 C -0.186,1.465 -0.264,1.381 -0.314,1.283 L -2.14,-2.314 c -0.107,-0.213 -0.023,-0.471 0.188,-0.579 0.211,-0.107 0.471,-0.023 0.578,0.188 L 0,0 z"
         style="fill:#ffffff;fill-opacity:1;fill-rule:nonzero;stroke:none"
         id="path5360" />
    </g>
    <g
       id="g5362"
       transform="matrix(1.8214937,0,0,-1.8214937,380.95977,526.62147)">
      <path
         inkscape:connector-curvature="0"
         d="M 0,0 C 0.314,0.197 0.412,0.611 0.215,0.926 L -0.016,0.785 C 0.104,0.596 0.045,0.348 -0.145,0.23 L -7.448,-4.393 -7.304,-4.621 0,0 z"
         style="fill:#ffffff;fill-opacity:1;fill-rule:nonzero;stroke:none"
         id="path5364" />
    </g>
  </g>
</svg>
